svg/emoji_u1f61f.svg

<svg width="128" height="128" viewBox="0 0 128 128" fill="none" xmlns="http://www.w3.org/2000/svg">
<path d="M63.6001 118.8C35.7001 118.8 5.6001 101.3 5.6001 62.9C5.6001 24.5 35.7001 7 63.6001 7C79.1001 7 93.4001 12.1 104 21.4C115.5 31.6 121.6 46 121.6 62.9C121.6 79.8 115.5 94.1 104 104.3C93.4001 113.6 79.0001 118.8 63.6001 118.8Z" fill="url(#paint0_radial_2453_1810)" style=""/>
<path d="M111.49 29.6699C116.82 38.2699 119.6 48.5099 119.6 59.8999C119.6 76.7999 113.5 91.0999 102 101.3C91.4002 110.6 77.0002 115.8 61.6002 115.8C43.5402 115.8 24.6002 108.45 13.4202 92.8599C24.1802 110.52 44.4202 118.8 63.6002 118.8C79.0002 118.8 93.4002 113.6 104 104.3C115.5 94.0999 121.6 79.7999 121.6 62.8999C121.6 50.1599 118.13 38.8399 111.49 29.6699Z" fill="#EB8F00" style="fill:#EB8F00;fill:color(display-p3 0.9216 0.5608 0.0000);fill-opacity:1;"/>
<path d="M63.9 82C53.4 82 45.9 88.3 43.7 91.8C42.86 92.92 42.67 94.4 43.2 95.7C43.62 96.53 44.48 97.03 45.4 97C45.74 96.98 46.08 96.91 46.4 96.8C51.7 95.1 56.3 92.7 63.9 92.7C71.5 92.7 76.1 95.2 81.4 96.8C81.72 96.91 82.06 96.98 82.4 97C83.32 97.03 84.18 96.53 84.6 95.7C85.18 94.41 84.98 92.9 84.1 91.8C81.9 88.3 74.4 82 63.9 82Z" fill="#422B0D" style="fill:#422B0D;fill:color(display-p3 0.2588 0.1686 0.0510);fill-opacity:1;"/>
<path d="M44 49.9399C39.81 49.9399 36 53.4799 36 59.3599C36 65.2399 39.81 68.7699 44 68.7699C48.2 68.7699 52 65.2299 52 59.3599C52 53.4899 48.24 49.9399 44 49.9399Z" fill="#422B0D" style="fill:#422B0D;fill:color(display-p3 0.2588 0.1686 0.0510);fill-opacity:1;"/>
<path d="M43.65 53.8701C42.23 53.1901 40.52 53.7901 39.83 55.2101C39.3 56.3201 39.54 57.6501 40.43 58.5101C41.85 59.1901 43.56 58.5901 44.25 57.1701C44.78 56.0601 44.54 54.7301 43.65 53.8701Z" fill="#896024" style="fill:#896024;fill:color(display-p3 0.5373 0.3765 0.1412);fill-opacity:1;"/>
<path d="M82.3999 49.9399C78.2099 49.9399 74.3999 53.4799 74.3999 59.3599C74.3999 65.2399 78.2099 68.7699 82.3999 68.7699C86.5899 68.7699 90.3999 65.2299 90.3999 59.3599C90.3999 53.4899 86.5899 49.9399 82.3999 49.9399Z" fill="#422B0D" style="fill:#422B0D;fill:color(display-p3 0.2588 0.1686 0.0510);fill-opacity:1;"/>
<path d="M82.0001 53.8701C80.5801 53.1901 78.8701 53.7901 78.1801 55.2101C77.6501 56.3201 77.8901 57.6501 78.7801 58.5101C80.2001 59.1901 81.9101 58.5901 82.6001 57.1701C83.1301 56.0601 82.8901 54.7301 82.0001 53.8701Z" fill="#896024" style="fill:#896024;fill:color(display-p3 0.5373 0.3765 0.1412);fill-opacity:1;"/>
<path d="M28.0652 37.1304C27.3652 37.8604 26.1952 37.8904 25.4652 37.1804C24.8052 36.5504 24.7152 35.5204 25.2452 34.7804C26.3752 33.1504 27.7652 31.7304 29.3652 30.5604C33.5552 27.3304 38.8052 25.8004 44.0752 26.2804C46.5652 26.5904 46.0752 29.7704 43.8652 29.9804C37.9252 30.4504 32.3352 32.9804 28.0652 37.1304Z" fill="#422B0D" style="fill:#422B0D;fill:color(display-p3 0.2588 0.1686 0.0510);fill-opacity:1;"/>
<path d="M99.1349 37.3602C99.8349 38.0902 101.005 38.1202 101.735 37.4102C102.395 36.7802 102.485 35.7502 101.955 35.0102C100.845 33.4002 99.4649 31.9902 97.8849 30.8402C93.6949 27.6102 88.4449 26.0802 83.1749 26.5702C80.6949 26.8802 81.1749 30.0502 83.3849 30.2602C89.3049 30.7302 94.8649 33.2402 99.1349 37.3602Z" fill="#422B0D" style="fill:#422B0D;fill:color(display-p3 0.2588 0.1686 0.0510);fill-opacity:1;"/>
<defs>
<radialGradient id="paint0_radial_2453_1810" cx="0" cy="0" r="1" gradientUnits="userSpaceOnUse" gradientTransform="translate(63.6001 62.9) scale(56.9597 56.9597)">
<stop offset="0.5" stop-color="#FDE030" style="stop-color:#FDE030;stop-color:color(display-p3 0.9922 0.8784 0.1882);stop-opacity:1;"/>
<stop offset="0.92" stop-color="#F7C02B" style="stop-color:#F7C02B;stop-color:color(display-p3 0.9686 0.7529 0.1686);stop-opacity:1;"/>
<stop offset="1" stop-color="#F4A223" style="stop-color:#F4A223;stop-color:color(display-p3 0.9569 0.6353 0.1373);stop-opacity:1;"/>
</radialGradient>
</defs>
</svg>

<?xml version="1.0" encoding="utf-8"?>
<!-- Generator: Adobe Illustrator 24.1.2, SVG Export Plug-In . SVG Version: 6.00 Build 0)  -->
<svg version="1.1" id="Layer_1" xmlns="http://www.w3.org/2000/svg" xmlns:xlink="http://www.w3.org/1999/xlink" x="0px" y="0px"
	 viewBox="0 0 128 128" style="enable-background:new 0 0 128 128;" xml:space="preserve">
<g id="gold">
	
		<radialGradient id="face_1_" cx="63.6" cy="1400.9" r="56.9597" gradientTransform="matrix(1 0 0 1 0 -1338)" gradientUnits="userSpaceOnUse">
		<stop  offset="0.5" style="stop-color:#FDE030"/>
		<stop  offset="0.92" style="stop-color:#F7C02B"/>
		<stop  offset="1" style="stop-color:#F4A223"/>
	</radialGradient>
	<path id="face" style="fill:url(#face_1_);" d="M63.6,118.8c-27.9,0-58-17.5-58-55.9S35.7,7,63.6,7c15.5,0,29.8,5.1,40.4,14.4
		c11.5,10.2,17.6,24.6,17.6,41.5s-6.1,31.2-17.6,41.4C93.4,113.6,79,118.8,63.6,118.8z"/>
	<path style="fill:#EB8F00;" d="M111.49,29.67c5.33,8.6,8.11,18.84,8.11,30.23c0,16.9-6.1,31.2-17.6,41.4
		c-10.6,9.3-25,14.5-40.4,14.5c-18.06,0-37-7.35-48.18-22.94c10.76,17.66,31,25.94,50.18,25.94c15.4,0,29.8-5.2,40.4-14.5
		c11.5-10.2,17.6-24.5,17.6-41.4C121.6,50.16,118.13,38.84,111.49,29.67z"/>
</g>
<g id="facial_expressions">
	<g id="worried-face">
		<path id="mouth" style="fill:#422B0D;" d="M63.9,82c-10.5,0-18,6.3-20.2,9.8c-0.84,1.12-1.03,2.6-0.5,3.9
			c0.42,0.83,1.28,1.33,2.2,1.3c0.34-0.02,0.68-0.09,1-0.2c5.3-1.7,9.9-4.1,17.5-4.1s12.2,2.5,17.5,4.1c0.32,0.11,0.66,0.18,1,0.2
			c0.92,0.03,1.78-0.47,2.2-1.3c0.58-1.29,0.38-2.8-0.5-3.9C81.9,88.3,74.4,82,63.9,82z"/>
	</g>
	<path style="fill:#422B0D;" d="M44,49.94L44,49.94c-4.19,0-8,3.54-8,9.42s3.81,9.41,8,9.41l0,0c4.2,0,8-3.54,8-9.41
		S48.24,49.94,44,49.94z"/>
	<g id="peepers">
		<path style="fill:#896024;" d="M43.65,53.87L43.65,53.87c-1.42-0.68-3.13-0.08-3.82,1.34c-0.53,1.11-0.29,2.44,0.6,3.3l0,0
			c1.42,0.68,3.13,0.08,3.82-1.34C44.78,56.06,44.54,54.73,43.65,53.87z"/>
	</g>
	<path style="fill:#422B0D;" d="M82.4,49.94L82.4,49.94c-4.19,0-8,3.54-8,9.42s3.81,9.41,8,9.41l0,0c4.19,0,8-3.54,8-9.41
		S86.59,49.94,82.4,49.94z"/>
	<g id="peepers-2">
		<path style="fill:#896024;" d="M82,53.87L82,53.87c-1.42-0.68-3.13-0.08-3.82,1.34c-0.53,1.11-0.29,2.44,0.6,3.3l0,0
			c1.42,0.68,3.13,0.08,3.82-1.34C83.13,56.06,82.89,54.73,82,53.87z"/>
	</g>
	<g id="eyebrows">
		<path style="fill:#422B0D;" d="M27.4,34.8c-2.2,0.4-2.3,3.6,0.1,3.7c5.3,0.07,10.42-1.9,14.3-5.5c1.48-1.28,2.73-2.8,3.7-4.5
			c0.58-0.83,0.38-1.97-0.45-2.55c-0.83-0.58-1.97-0.38-2.55,0.45l-0.1,0.1C38.48,30.88,33.19,33.81,27.4,34.8z"/>
		<path style="fill:#422B0D;" d="M84.5,26.4c-0.58-0.83-1.72-1.03-2.55-0.45c-0.83,0.58-1.03,1.72-0.45,2.55
			c0.97,1.7,2.22,3.22,3.7,4.5c3.9,3.57,9.01,5.54,14.3,5.5c2.5-0.1,2.3-3.3,0.1-3.7C93.74,33.84,88.41,30.87,84.5,26.4L84.5,26.4"
			/>
	</g>
</g>
</svg>
